X: 37386
T: Sleeping Tune, The
R: reel
M: 4/4
K: Bminor
B2 f4 fe|g2gf fecd|e2 e4 ed|e3d efdc|
d6 dc|d3c decB|c2 c4cB|1 c3d efdc:|2 c3d effe||
d2 a4 cd|acda cddB|c2 a4 cB|c3B cddc|
B2 a4 BA|B3A BcdB|c2cB cded|1 e4- effe:|2 e6dc||

